src/components/00-materials/images-raw/Cancellation.svg

<svg width="96" height="96" viewBox="0 0 96 96" fill="none" xmlns="http://www.w3.org/2000/svg">
<path d="M71.18 79.81H77.65C77.8674 79.818 78.0842 79.7825 78.2876 79.7054C78.491 79.6283 78.6769 79.5113 78.8344 79.3613C78.9919 79.2112 79.1178 79.0312 79.2046 78.8318C79.2915 78.6323 79.3375 78.4175 79.34 78.2V39.06C79.3194 38.6258 79.1323 38.2162 78.8176 37.9164C78.5029 37.6165 78.0847 37.4495 77.65 37.45H70.3M36.08 79.81H59.71M25.55 37.45H18.35C18.1326 37.442 17.9158 37.4775 17.7124 37.5546C17.509 37.6317 17.3231 37.7487 17.1656 37.8987C17.0081 38.0488 16.8822 38.2288 16.7954 38.4282C16.7086 38.6277 16.6625 38.8425 16.66 39.06V78.2C16.6781 78.6351 16.8645 79.0461 17.1797 79.3464C17.495 79.6468 17.9146 79.813 18.35 79.81H25.05M61.26 37.45H34.63M29.74 69.1V49.17M65.91 69.1V49.54M74.8 68.13H66.22M48.99 68.57H46.86M74.8 59.67L57.22 59.38M74.8 50.35H65.99M29.22 68.56H20.86M39.22 59.38H20.86M29.36 49.93H20.86M48.86 49.93H46.9M48 50.67V42.3M48 75.1V68.3M32.75 23.48C32.75 23.9803 32.6515 24.4758 32.46 24.938C32.2685 25.4003 31.9879 25.8203 31.6341 26.1741C31.2803 26.5279 30.8603 26.8085 30.398 27C29.9358 27.1915 29.4403 27.29 28.94 27.29C28.4397 27.29 27.9442 27.1915 27.482 27C27.0197 26.8085 26.5997 26.5279 26.2459 26.1741C25.8921 25.8203 25.6115 25.4003 25.42 24.938C25.2286 24.4758 25.13 23.9803 25.13 23.48V13.31C25.13 12.8097 25.2286 12.3142 25.42 11.852C25.6115 11.3897 25.8921 10.9697 26.2459 10.6159C26.5997 10.2621 27.0197 9.98149 27.482 9.79002C27.9442 9.59855 28.4397 9.5 28.94 9.5C29.4403 9.5 29.9358 9.59855 30.398 9.79002C30.8603 9.98149 31.2803 10.2621 31.6341 10.6159C31.9879 10.9697 32.2685 11.3897 32.46 11.852C32.6515 12.3142 32.75 12.8097 32.75 13.31V23.48ZM70 13.31C70 12.2995 69.5986 11.3304 68.8841 10.6159C68.1696 9.90141 67.2005 9.5 66.19 9.5C65.1795 9.5 64.2104 9.90141 63.4959 10.6159C62.7814 11.3304 62.38 12.2995 62.38 13.31V23.48C62.38 24.4905 62.7814 25.4596 63.4959 26.1741C64.2104 26.8886 65.1795 27.29 66.19 27.29C67.2005 27.29 68.1696 26.8886 68.8841 26.1741C69.5986 25.4596 70 24.4905 70 23.48V13.31ZM86.12 23V82.35C86.1174 82.9019 86.0054 83.4477 85.7902 83.956C85.5751 84.4642 85.2613 84.9247 84.8669 85.3107C84.4725 85.6967 84.0054 86.0006 83.4927 86.2048C82.98 86.4089 82.4318 86.5093 81.88 86.5H14.12C13.5682 86.5093 13.0201 86.4089 12.5073 86.2048C11.9946 86.0006 11.5275 85.6967 11.1331 85.3107C10.7387 84.9247 10.4249 84.4642 10.2098 83.956C9.99466 83.4477 9.88257 82.9019 9.88 82.35V23C9.88257 22.4481 9.99466 21.9023 10.2098 21.394C10.4249 20.8858 10.7387 20.4253 11.1331 20.0393C11.5275 19.6533 11.9946 19.3494 12.5073 19.1452C13.0201 18.9411 13.5682 18.8407 14.12 18.85H20.89V23.51C20.89 27.15 21.78 31.72 28.94 31.72C36.1 31.72 37 27 37 23.48V18.82H58.16V23.48C58.16 27.12 59.5 31.69 66.16 31.69C72.82 31.69 74.21 27.03 74.21 23.48V18.82H81.8C82.9234 18.8143 84.0044 19.2485 84.8118 20.0297C85.6191 20.8109 86.0887 21.877 86.12 23Z" stroke="#00008F" stroke-width="2" stroke-linecap="round" stroke-linejoin="round"/>
<path d="M61.76 37.39L48 51.15L34.24 37.39C33.1659 36.3172 31.7096 35.715 30.1914 35.7159C28.6733 35.7169 27.2178 36.3208 26.145 37.395C25.0722 38.4691 24.47 39.9254 24.4709 41.4435C24.4719 42.9616 25.0759 44.4172 26.15 45.49L39.91 59.24L26.15 73C25.0772 74.0728 24.4745 75.5278 24.4745 77.045C24.4745 78.5621 25.0772 80.0172 26.15 81.09C27.2228 82.1628 28.6778 82.7655 30.195 82.7655C31.7121 82.7655 33.1672 82.1628 34.24 81.09L48 67.34L61.76 81.09C62.8328 82.1628 64.2878 82.7655 65.805 82.7655C67.3221 82.7655 68.7772 82.1628 69.85 81.09C70.9228 80.0172 71.5255 78.5621 71.5255 77.045C71.5255 75.5278 70.9228 74.0728 69.85 73L56.09 59.24L69.85 45.49C70.3818 44.9588 70.8038 44.328 71.0919 43.6337C71.38 42.9394 71.5285 42.1952 71.529 41.4435C71.5295 40.6918 71.3819 39.9474 71.0946 39.2527C70.8074 38.5581 70.3862 37.9268 69.855 37.395C69.3238 36.8631 68.693 36.4411 67.9987 36.153C67.3044 35.8649 66.5602 35.7164 65.8085 35.7159C65.0568 35.7155 64.3124 35.8631 63.6178 36.1503C62.9231 36.4375 62.2918 36.8588 61.76 37.39V37.39Z" stroke="#00008F" stroke-width="2" stroke-linecap="round" stroke-linejoin="round"/>
</svg>

<svg width="96" height="96" viewBox="0 0 96 96" fill="none" xmlns="http://www.w3.org/2000/svg"><path d="M71.18 79.81h6.47a1.63 1.63 0 001.69-1.61V39.06a1.69 1.69 0 00-1.69-1.61H70.3M36.08 79.81h23.63M25.55 37.45h-7.2a1.63 1.63 0 00-1.69 1.61V78.2a1.68 1.68 0 001.69 1.61h6.7m36.21-42.36H34.63M29.74 69.1V49.17M65.91 69.1V49.54m8.89 18.59h-8.58m-17.23.44h-2.13m27.94-8.9l-17.58-.29m17.58-9.03h-8.81M29.22 68.56h-8.36m18.36-9.18H20.86m8.5-9.45h-8.5m28 0H46.9m1.1.74V42.3m0 32.8v-6.8M32.75 23.48a3.81 3.81 0 11-7.62 0V13.31a3.811 3.811 0 017.62 0v10.17zM70 13.31a3.81 3.81 0 10-7.62 0v10.17a3.81 3.81 0 107.62 0V13.31zM86.12 23v59.35a4.17 4.17 0 01-4.24 4.15H14.12a4.17 4.17 0 01-4.24-4.15V23a4.17 4.17 0 014.24-4.15h6.77v4.66c0 3.64.89 8.21 8.05 8.21C36.1 31.72 37 27 37 23.48v-4.66h21.16v4.66c0 3.64 1.34 8.21 8 8.21s8.05-4.66 8.05-8.21v-4.66h7.59A4.3 4.3 0 0186.12 23z" stroke="#00008F" stroke-width="2" stroke-linecap="round" stroke-linejoin="round"/><path d="M61.76 37.39L48 51.15 34.24 37.39a5.724 5.724 0 10-8.09 8.1l13.76 13.75L26.15 73a5.72 5.72 0 108.09 8.09L48 67.34l13.76 13.75A5.72 5.72 0 1069.85 73L56.09 59.24l13.76-13.75a5.725 5.725 0 00-8.09-8.1v0z" stroke="#00008F" stroke-width="2" stroke-linecap="round" stroke-linejoin="round"/></svg>
